X: 10099
T: Diet Lemon Spade
R: jig
M: 6/8
K: Amajor
ABA cAA|aAA fAe|deg aec|BcB cAF|
EGA Bce|deg aec|BcB cAF|ABA BcB:|
cBA FAc|BAE cBA|DEG ABc|eee ecB|
cBA FAc|BAE cBA|GAB cde|gaf ecB|
cBA eAA|GAe cBA|FAA eAf|AgA age|
age dcA|FAA EAA|DAA EAA|FAA GAB||

